.svelte-kit/output/client/library/bank-北京银行 BOB.svg

<svg width="128" height="136" viewBox="0 0 128 136" fill="none" xmlns="http://www.w3.org/2000/svg">
<g filter="url(#filter0_d_18_283)">
<path d="M63.5 21.5C40 21.5 21.5 40.726 21.5 64C21.5 87.78 40.5 106.5 63.5 106.5C74.5 106.5 82 102.452 85.5 100.428C93.5 95.369 98 88.2855 97 81.2025C96 75.131 90.5 70.5775 83.5 68.5535C83 68.5535 82 68.0475 81.5 68.0475C85 66.024 87 63.494 87.5 59.9525C88.5 52.363 80 44.774 68.5 43.256C58 41.738 49.5 42.75 46.5 42.75V56.4105C52.5 55.399 60.5 55.399 67 56.4105C72.5 57.4225 76 59.4465 76.5 61.976C76.5 62.482 76.5 63.494 76 64C74.5 66.024 72 66.024 70 65.518C63 64.506 55 64.506 47 65.518V79.1785C54.5 78.1665 67 78.1665 73 79.1785C78.5 80.1905 82 82.72 82.5 85.756C82.5 87.274 82 88.286 81 89.8035C79 92.3335 73 94.8635 64.5 94.8635C47.5 94.8635 33.5 80.6965 33.5 63.494C33.5 46.2915 47.5 32.125 64.5 32.125C81.5 32.125 95.5 46.2915 95.5 63.494V67.0355C97.5 68.0475 101 70.5775 105 75.1305C106 71.5895 106.5 67.5415 106.5 63.494C106 40.22 87 21.5 63.5 21.5Z" fill="#E50012"/>
</g>
<defs>
<filter id="filter0_d_18_283" x="-13" y="0" width="154" height="157" filterUnits="userSpaceOnUse" color-interpolation-filters="sRGB">
<feFlood flood-opacity="0" result="BackgroundImageFix"/>
<feColorMatrix in="SourceAlpha" type="matrix" values="0 0 0 0 0 0 0 0 0 0 0 0 0 0 0 0 0 0 127 0" result="hardAlpha"/>
<feOffset dy="16"/>
<feGaussianBlur stdDeviation="6.5"/>
<feColorMatrix type="matrix" values="0 0 0 0 0 0 0 0 0 0 0 0 0 0 0 0 0 0 0.03 0"/>
<feBlend mode="normal" in2="BackgroundImageFix" result="effect1_dropShadow_18_283"/>
<feBlend mode="normal" in="SourceGraphic" in2="effect1_dropShadow_18_283" result="shape"/>
</filter>
</defs>
</svg>

<svg width="128" height="136" fill="none" xmlns="http://www.w3.org/2000/svg"><g filter="url(#a)"><path d="M63.5 21.5c-23.5 0-42 19.226-42 42.5 0 23.78 19 42.5 42 42.5 11 0 18.5-4.048 22-6.072 8-5.059 12.5-12.142 11.5-19.225-1-6.072-6.5-10.626-13.5-12.65-.5 0-1.5-.505-2-.505 3.5-2.024 5.5-4.554 6-8.096 1-7.589-7.5-15.178-19-16.696-10.5-1.518-19-.506-22-.506v13.66c6-1.011 14-1.011 20.5 0 5.5 1.013 9 3.037 9.5 5.566 0 .506 0 1.518-.5 2.024-1.5 2.024-4 2.024-6 1.518-7-1.012-15-1.012-23 0v13.66c7.5-1.011 20-1.011 26 0 5.5 1.013 9 3.542 9.5 6.578 0 1.518-.5 2.53-1.5 4.047-2 2.53-8 5.06-16.5 5.06-17 0-31-14.166-31-31.369s14-31.369 31-31.369 31 14.166 31 31.369v3.541c2 1.013 5.5 3.543 9.5 8.096 1-3.541 1.5-7.59 1.5-11.637C106 40.22 87 21.5 63.5 21.5Z" fill="#E50012"/></g><defs><filter id="a" x="-13" y="0" width="154" height="157" filterUnits="userSpaceOnUse" color-interpolation-filters="sRGB"><feFlood flood-opacity="0" result="BackgroundImageFix"/><feColorMatrix in="SourceAlpha" values="0 0 0 0 0 0 0 0 0 0 0 0 0 0 0 0 0 0 127 0" result="hardAlpha"/><feOffset dy="16"/><feGaussianBlur stdDeviation="6.5"/><feColorMatrix values="0 0 0 0 0 0 0 0 0 0 0 0 0 0 0 0 0 0 0.03 0"/><feBlend in2="BackgroundImageFix" result="effect1_dropShadow_18_283"/><feBlend in="SourceGraphic" in2="effect1_dropShadow_18_283" result="shape"/></filter></defs></svg>
